apps/scalable/system-file-manager.svg

<?xml version="1.0" encoding="UTF-8" standalone="no"?>
<svg
   xmlns:dc="http://purl.org/dc/elements/1.1/"
   xmlns:cc="http://creativecommons.org/ns#"
   xmlns:rdf="http://www.w3.org/1999/02/22-rdf-syntax-ns#"
   xmlns:svg="http://www.w3.org/2000/svg"
   xmlns="http://www.w3.org/2000/svg"
   xmlns:sodipodi="http://sodipodi.sourceforge.net/DTD/sodipodi-0.dtd"
   xmlns:inkscape="http://www.inkscape.org/namespaces/inkscape"
   width="128"
   height="128"
   viewBox="0 0 128 128"
   fill="none"
   version="1.1"
   id="svg11"
   sodipodi:docname="system-file-manager.svg"
   inkscape:version="0.92.2 5c3e80d, 2017-08-06">
  <metadata
     id="metadata15">
    <rdf:RDF>
      <cc:Work
         rdf:about="">
        <dc:format>image/svg+xml</dc:format>
        <dc:type
           rdf:resource="http://purl.org/dc/dcmitype/StillImage" />
      </cc:Work>
    </rdf:RDF>
  </metadata>
  <sodipodi:namedview
     pagecolor="#ffffff"
     bordercolor="#666666"
     borderopacity="1"
     objecttolerance="10"
     gridtolerance="10"
     guidetolerance="10"
     inkscape:pageopacity="0"
     inkscape:pageshadow="2"
     inkscape:window-width="640"
     inkscape:window-height="480"
     id="namedview13"
     showgrid="false"
     inkscape:zoom="1.84375"
     inkscape:cx="64"
     inkscape:cy="71.277759"
     inkscape:window-x="0"
     inkscape:window-y="0"
     inkscape:window-maximized="0"
     inkscape:current-layer="svg11" />
  <path
     d="M 4.18183,15.581147 C 6.19481,11.073044 10.7898,8.5023212 15.215,8.5779212 c 9.8865,0.02833 19.773,-0.02843 29.6596,0.01884 2.0639,-0.08508 3.89,1.256983 5.266,2.8542758 3.3465,3.922261 6.5825,7.957922 10.0224,11.785628 18.1678,-0.104032 36.344,-0.08507 54.512,-0.0095 5.69,0.0756 10.218,5.86912 10.303,12.031271 0.025,23.004147 -0.026,45.998816 0.016,69.003284 0.102,4.49852 -1.206,9.38495 -4.467,12.2767 -1.733,1.53073 -3.907,2.19305 -5.903,3.19481 -35.4014,0.11351 -70.8196,0.0947 -106.22936,0.0947 -3.09166,0.45294 -6.54005,-2.44872 -6.37867,-6.059 C 2.02446,98.325981 1.95651,82.882804 2.04994,67.439625 2.03295,63.885996 2.94176,60.398488 4.30074,57.21349 6.45811,52.383922 11.206,49.189447 16.0474,49.227246 c 24.3341,0 48.6767,-0.0095 73.0108,0.0095 3.4653,-0.463186 6.8203,4.073461 5.0621,7.645935 -0.7984,2.230524 -2.9812,3.345786 -5.0282,3.345786 -24.3256,0.05664 -48.6597,-0.04727 -72.9853,0.04717 -3.0407,-0.141722 -4.0259,3.667139 -4.0684,6.407905 -0.1274,13.91212 0.1104,27.833715 -0.1189,41.746058 33.6006,0.009 67.2012,0.15098 100.7935,0.0749 1.129,0.11352 2.437,-0.93562 2.157,-2.33411 -0.017,-23.99642 0.145,-48.002319 -0.085,-71.998849 -18.7876,-0.0756 -37.5754,0.01896 -56.3547,-0.0378 -2.3867,0.103922 -4.2807,-1.786292 -5.7756,-3.629229 -2.9558,-3.638707 -6.0135,-7.182858 -8.9862,-10.812198 -9.2325,-0.0093 -18.4736,0.02843 -27.7061,-0.01884 -1.0362,0.05664 -2.2593,-0.151199 -3.0492,0.793908 -1.8176,4.252983 1.0447,9.989858 -2.4376,13.562442 C 7.64721,36.761203 2.8993,34.691466 2.34722,30.570728 2.11789,25.542683 2.03295,20.174439 4.18183,15.581147 Z"
     id="path2"
     style="fill:url(#paint0_linear);stroke-width:1.04977965"
     inkscape:connector-curvature="0" />
  <defs
     id="defs9">
    <linearGradient
       id="paint0_linear"
       x1="63.5"
       y1="114.993"
       x2="63.5"
       y2="14"
       gradientUnits="userSpaceOnUse"
       gradientTransform="matrix(1,0,0,1.1020373,0,-6.8522536)">
      <stop
         stop-color="#FD2E00"
         id="stop4" />
      <stop
         offset="1"
         stop-color="#FF9900"
         id="stop6" />
    </linearGradient>
  </defs>
</svg>

<svg width="128" height="128" viewBox="0 0 128 128" fill="none" xmlns="http://www.w3.org/2000/svg">
<path d="M4.18183 15.5813C6.19481 11.0732 10.7898 8.50244 15.215 8.57804C25.1015 8.60637 34.988 8.54961 44.8746 8.59688C46.9385 8.5118 48.7646 9.85386 50.1406 11.4512C53.4871 15.3734 56.7231 19.4091 60.163 23.2368C78.3308 23.1328 96.507 23.1517 114.675 23.2273C120.365 23.3029 124.893 29.0964 124.978 35.2586C125.003 58.2627 124.952 81.2574 124.994 104.262C125.096 108.76 123.788 113.647 120.527 116.539C118.794 118.069 116.62 118.732 114.624 119.733C79.2226 119.847 43.8044 119.828 8.39464 119.828C5.30298 120.281 1.85459 117.379 2.01597 113.769C2.02446 98.3261 1.95651 82.8829 2.04994 67.4397C2.03295 63.8861 2.94176 60.3986 4.30074 57.2136C6.45811 52.384 11.206 49.1896 16.0474 49.2274C40.3815 49.2274 64.7241 49.2179 89.0582 49.2369C92.5235 48.7737 95.8785 53.3103 94.1203 56.8828C93.3219 59.1133 91.1391 60.2286 89.0921 60.2286C64.7665 60.2852 40.4324 60.1813 16.1068 60.2758C13.0661 60.134 12.0809 63.9429 12.0384 66.6837C11.911 80.5958 12.1488 94.5174 11.9195 108.43C45.5201 108.439 79.1207 108.581 112.713 108.505C113.842 108.618 115.15 107.569 114.87 106.171C114.853 82.1741 115.015 58.1682 114.785 34.1717C95.9974 34.0961 77.2096 34.1906 58.4303 34.1339C56.0436 34.2378 54.1496 32.3476 52.6547 30.5046C49.6989 26.8659 46.6412 23.3218 43.6685 19.6924C34.436 19.6831 25.1949 19.7209 15.9624 19.6736C14.9262 19.7302 13.7031 19.5224 12.9132 20.4675C11.0956 24.7205 13.9579 30.4574 10.4756 34.0299C7.64721 36.7613 2.8993 34.6916 2.34722 30.5708C2.11789 25.5428 2.03295 20.1746 4.18183 15.5813Z" fill="url(#paint0_linear)"/>
<defs>
<linearGradient id="paint0_linear" x1="24.2937" y1="106.735" x2="125.526" y2="9.12226" gradientUnits="userSpaceOnUse">
<stop stop-color="#FE0844"/>
<stop offset="1" stop-color="#FEB302"/>
</linearGradient>
</defs>
</svg>
